X:255
T:Sheffield Hornpipe. Le4.256
L:1/8
B:L.Leadley MS#4 c1850
Z:vmp.Mike Hicken 2016 www.village-music-project.org.uk
N: This is tune 45 of The Fiddler of Helperby.
N: * This notei s a quaver in the original.
M:C|
Q:1/4=120
K:C
ed|ceGc AcGc|cBcd e2 ge|fedc cBcd|e2d2d2 ed|
ceGc AcGc|cBcd efga|fedc cBcd|e2c2c2:|
|: "*"g2|cgeg cgeg|cgeg  c2 eg|cgeg cgeg|f2d2d2 ed|
ceGc AcGc|cBcd efga|fedc cBcd|e2c2c2 :|

